!!!OTL: 961.
!!!ARE: Europa, Mitteleuropa, Deutschland
!!!SCT: E0961
!!!YEM: Copyright 1995, estate of Helmut Schaffrath.
**kern
*ICvox
*M3/4
*met(3)
*k[]
*a:
!LO:TX:a:t=Thyfius Lautenb. um 1600. Augs. v. Land, Nr. 55
{4a
=1
2a
8aL
8bJ
=2
4cc
4cc
4cc
=3
(4.b/
8a)
8gL
8f#J
=4
4e
4e}
{4b
=5
2b
8bL
8ccJ
=6
4b
4b
4cc
=7
(2dd
8cc)
8b
=8
2cc}
{4b
=9
4a
2g#
=10
4e
2a
=11
2b}
{8eL
8f#J
=12
2g#
4a
=13
2b
4a
=14
(4.dd
8cc)
4b
=15
2cc}
{4b
=16
4.a
8b/
4a
=17
2g#
4b/
=18
[2.a
=19
2a;]}
==
!!!Ag: Tanz - Lied, Reigen, Mai - Tanz
!!!ONB: ESAC (Essen Associative Code) Database: ERK2
!!!AMT: simple triple
!!!AIN: vox
!!!EED: Helmut Schaffrath
!!!EEV: 1.0
!!!GTL: Tanz- und Spiellieder.
!!!URL-scan: https://rosdok.uni-rostock.de/mcrviewer/recordIdentifier/rosdok_ppn745177662/iview2/phys_0735.iview2?x=-151.00528573090037&y=167.69762777443975&scale=0.5208463313777512&rotation=0&layout=singlePageLayout
!!!ENC: Anna Maria Matuszewska
!!!EEV: 2024/12/20
*-
